X:1
T: The Iron Bridge
C:
R:Strathspey
Q: 128
K:G
M:4/4
L:1/16
|:B2c2|d4 dB3 e3d c2B2|d4 BG3 A4 B2c2|d4 dB3 e3d c2B2|A3G F2G2 A4 B2c2|
d4 dB3 e3d c2B2|d4 BG3 A4 B2c2|B4 D4 EG3 c2B2|A6 G2 G4 B2c2|
d4 g4 b3a g2f2|g3d B2d2 c4 d2c2|B4 ((3G2A2B2) c3B A2G2|F4 A4 A4 B2c2|
d4 ((3B2A2G2) e3f g2e2|d3B GB3 A4 B2c2|B4 D4 EG3 c2B2|A6 G2 G4:|
